!!!CDT:
!!!PTL: Arie a una voce
!!!PPP: Venice
!!!PPR: Bartholomeo Magni
!!!PDT: 1620
!!!RISM: L 530
!!!rime: 433
!!!AGN: Madrigal
!!!SCT: Trm0433i
!!!SCA: Trm0433i
!!!voices:
!!!COM: Landi, Stefano
!!!OTL: Se tu mi lasci, perfida, tuo danno 
**kern	**fb	**kern	**text
*part2	*part2	*part1	*part1
*staff2	*staff2	*staff1	*staff1
*I"[Basso continuo]	*	*I"[Basso]	*
*I'Bc	*	*I'B	*
*oclefF4	*	*oclefF4	*
*clefF4	*	*clefF4	*
*k[b-]	*	*k[b-]	*
*F:	*	*F:	*
*omet(C)	*	*omet(C)	*
*M4/4	*	*M4/4	*
=1	=1	=1	=1
!	!	!LO:TX:a:t=Madrigale.	!
1F	.	2.F	Se
.	.	8F	tu
.	.	8F	mi
=2	=2	=2	=2
2F	.	2F	la-
2C	5:6	2C	-sci,,
=3	=3	=3	=3
4.D	.	4.D	per-
8C	.	8C	-fi-
4BB-y	.	4BB-y	-da,
4AA	.	4AA	tuo
=4	=4	=4	=4
1C	.	1C	dan-
=5	=5	=5	=5
1FF	.	1FF	-no,
=6	=6	=6	=6
1B-y	.	2r	.
.	.	4B-y	Se
.	.	8B-y	tu
.	.	8B-y	mi
=7	=7	=7	=7
2B-y	.	2B-y	la-
2F	.	2F	-sci,
=8	=8	=8	=8
4.G	.	4.G	per-
8F	.	8F	-fi-
4E-X	.	4E-X	-da
4D	.	16DL	tuo
.	.	16C	.
.	.	16D	.
.	.	16EnXiJ	.
=9	=9	=9	=9
1F	.	1F	dan-
=10	=10	=10	=10
2.BB-y	.	2.BB-y	-no,
4C	-	16CL	tuo
.	.	16D	.
.	.	16E-X	.
.	.	16CJ	.
=11	=11	=11	=11
1G	4:3	1G	dan-
=12	=12	=12	=12
1C	.	1C	-no:
=13	=13	=13	=13
2F	.	4F	Non
.	.	8F	ti
.	.	8F	pen-
4G	.	4G	-sar
4E-X	.	16E-XL	che
.	.	16D	.
.	.	16E-i	.
.	.	16FJ	.
=14	=14	=14	=14
2D	.	4D	.
.	.	4D	sia
[2B-y	.	[2B-y	mi-
=15	=15	=15	=15
2B-]	5:6	4B-]	.
.	.	8B-y	-se-
.	.	8B-y	-ra
2A	7:#6	4.A	sen-
.	.	8G	-za
=16	=16	=16	=16
2.G	-	2.G	te
4F#X	.	4F#X	la
=17	=17	=17	=17
2G	.	2G	vi-
2E-X	-	4E-X	-ta
.	.	8DL	.
.	.	8CJ	.
=18	=18	=18	=18
1G	4:3	1G	mi-
=19	=19	=19	=19
1C	.	2C	-a,
.	.	4C	Non
.	.	8C	ti
.	.	8C	pen-
=20	=20	=20	=20
2.F	.	2.F	-sar
4D	.	4D	che
=21	=21	=21	=21
2C	.	4C	sia
.	.	4C	mi-
[2F	.	[2F	.
=22	=22	=22	=22
2F]	5:6	4F]	.
.	.	8F	-se-
.	.	8F	-ra
2E	7:#6	4.E	sen-
.	.	8D	-za
=23	=23	=23	=23
2.D	#	2.D	te
4G	.	4G	la
=24	=24	=24	=24
2D	6	2D	vi-
2F	.	16FL	-ta
.	.	16E	.
.	.	16D	.
.	.	16EJ	.
.	.	16FL	.
.	.	16G	.
.	.	16A	.
.	.	16B-yJ	.
=25	=25	=25	=25
1C	.	4c	.
.	.	16B-yL	.
.	.	16A	.
.	.	16G	.
.	.	16FJ	.
.	.	4E	.
.	.	16GL	.
.	.	16F	.
.	.	16E	.
.	.	16DJ	.
=26	=26	=26	=26
1C	.	4C	.
.	.	16EL	.
.	.	16D	.
.	.	16C	.
.	.	16BB-yJ	.
.	.	8AAL	.
.	.	16C	.
.	.	16BB-yJ	.
.	.	16AAL	.
.	.	32GG	.
.	.	32FFJ	.
.	.	8CJL	mi-
=27	=27	=27	=27
1F	.	1FF	-a.
=28	=28	=28	=28
1D	#	2.D	Mi-
.	.	8D	-se-
.	.	8D	-ro
=29	=29	=29	=29
2D	.	2D	ben
2E-X	6	16E-XL	sa-
.	.	8.DJ	.
.	.	16E-iL	.
.	.	8.FJ	.
=30	=30	=30	=30
1D	.	2D	-re-
.	.	2D	-i
=31	=31	=31	=31
2.G	.	4G	Se
.	.	4G	mi-
.	.	4G	-se-
4A	.	8G	-ria
.	.	8A	sti-
=32	=32	=32	=32
2.B-y	.	4B-y	-mas-
.	.	8B-y	-si
.	.	8B-y	e
.	.	4B-y	non
4D	.	16DL	ven-
.	.	16C	.
.	.	16D	.
.	.	16EJ	.
=33	=33	=33	=33
2F	.	2F	-tu-
2F	.	2F	-ra
=34	=34	=34	=34
2c	.	4.c	per-
.	.	8B-y	-der
4A	.	16AL	chi
.	.	16B-y	.
.	.	16c	.
.	.	16AJ	.
[4B-y	.	[4B-y	non
=35	=35	=35	=35
4B-]	.	4B-]	.
4G	.	16GL	mi
.	.	16A	.
.	.	16B-y	.
.	.	16GJ	.
2A	.	2D	cu-
=36	=36	=36	=36
1D	.	1D	-ra
=37	=37	=37	=37
*M3/2	*	*M3/2	*
*omet(3)	*	*omet(3)	*
2D	.	2D	E
2D	.	2D	ri-
2G	.	2G	-co-
=38	=38	=38	=38
1F	.	2.F	-vra
.	.	4F	quel
2F	.	2F	che
=39	=39	=39	=39
2D	.	2D	di
1C	.	2.C	me
.	.	4C	per-
=40	=40	=40	=40
1F	.	1F	-de-
2F	.	2F	-i.
=41	=41	=41	=41
*M4/4	*	*M4/4	*
*omet(C)	*	*omet(C)	*
2r	.	2r	.
[2A	#	[2A	Mi-
=42	=42	=42	=42
2A]	.	4A]	.
.	.	4A	-se-
2B-y	6	2B-y	-ra è
=43	=43	=43	=43
1A	#	2.A	tu,
.	.	4A	che
=44	=44	=44	=44
2A	.	4.A	per
.	.	8G	no-
4F#X	.	4F#X	-vel-
4G	.	4G	-lo a-
=45	=45	=45	=45
2E	7:#6	2E	-mo-
2D	.	2D	-re
=46	=46	=46	=46
2G	.	2G	Per-
2D	.	2D	-di,
=47	=47	=47	=47
2F	.	2F	Per-
4C	.	4C	-di
4D	.	4D	quel
=48	=48	=48	=48
4AA	6	4AA	fi-
4C	.	4C	-do
2FF	.	2FF	co-
=49	=49	=49	=49
1C	.	1C	-re
=50	=50	=50	=50
*M3/2	*	*M3/2	*
*omet(3)	*	*omet(3)	*
2G	.	2G	Ch'e-
2E-X	.	2E-X	-ra
2C	.	2C	più
=51	=51	=51	=51
1.G	.	1.G	tuo,
=52	=52	=52	=52
2B-y	.	2B-y	<Ch'e-
2G	.	2G	-ra
2E-X	.	2E-X	più
=53	=53	=53	=53
*M4/4	*	*M4/4	*
*omet(C)	*	*omet(C)	*
2B-y	.	2B-y	tuo>
2B-y	.	8r	.
.	.	8B-y	che
.	.	8B-y	tu
.	.	8B-y	di
=54	=54	=54	=54
4A	.	4A	te
4E	6	4E	non
2G	.	2G	se-
=55	=55	=55	=55
1C	.	2.C	-i;
.	.	4C	Ma'l
=56	=56	=56	=56
4.F	.	4.F	tuo
8E	.	8E	già
4F	.	4F	non
4G	.	16GL	per-
.	.	16E	.
.	.	16F	.
.	.	16GJ	.
=57	=57	=57	=57
2C	.	2C	-d'i-
4C	.	4C	-o,
4c	.	4c	Ma'l
=58	=58	=58	=58
4.B-y	.	4.B-y	tuo
8A	.	8A	già
4B-y	.	4B-y	non
4c	.	16cL	per-
.	.	16A	.
.	.	16B-y	.
.	.	16cJ	.
=59	=59	=59	=59
2F	.	2F	-d'i-
4F	.	8F	-o
.	.	8B-y	Per-
4B-y	.	8B-y	-ché
.	.	8B-y	non
=60	=60	=60	=60
4A	.	4A	fu
4F	.	4F	mai
2G	.	2G	mi-
=61	=61	=61	=61
2C	.	2C	-o,
2F	.	8r	.
.	.	8F	Per-
.	.	8F	-ché
.	.	8F	non
=62	=62	=62	=62
4E-X	.	4E-X	fu
4C	.	4C	mai
2D	.	2D	mi-
=63	=63	=63	=63
2GG	.	2GG	-o,
2E-X	.	8r	.
.	.	8E-X	Per-
.	.	8E-i	-ché
.	.	8E-i	non
=64	=64	=64	=64
2D	.	2D	fu
2BB-y	.	16BB-yL	mai
.	.	16C	.
.	.	16D	.
.	.	16EnXiJ	.
.	.	16FL	.
.	.	16G	.
.	.	16A	.
.	.	16B-yJ	.
=65	=65	=65	=65
1C	.	16cL	.
.	.	16A	.
.	.	16B-y	.
.	.	16AJ	.
.	.	16GL	.
.	.	16F	.
.	.	16E	.
.	.	16DJ	.
.	.	16CL	.
.	.	16BB-y	.
.	.	16AA	.
.	.	16GGJ	.
.	.	16AAL	.
.	.	16GG	.
.	.	16AA	.
.	.	16FFJ	.
=66	=66	=66	=66
1C	.	1C	mi-
=67	=67	=67	=67
1FFl	.	1FFl	-o.
==	==	==	==
*-	*-	*-	*-
!!!system-decoration: [*]
!!!RDF**kern: i = editorial accidental
!!!RDF**kern: l = terminal long
!!!ENC: Emiliano Ricciardi
!!!END:
!!!EED: Ricciardi, Emiliano
!!!EEV: 2020/02/23
!!!YEC: Copyright 2018 Emiliano Ricciardi, All Rights Reserved
!!!ONB: Translated from MusicXML on 2020/02/23
!!@@BEGIN:	VERSEDATA
!!@SOLERTI:	433
!!@CATALOGNUM:	Trm0433
!!@LAST_MODIFIED: 2020/07/12
!!@ATTRIBUTION:	not secure
!!@TITLE:		Se tu mi lasci, perfida, tuo danno
!!@GENRE:		madrigale
!!@MANUSRC:	none
!!@PRINTSRC:	27, 70, 78, 141, 145, 166, 169
!!@@BEGIN:	VERSES
!!@ABOUTIT:	[Ad istanza di...]
!!@ABOUTEN:	[On behalf of...]
!!@EDITOR:	Solerti, Angelo
!!@EDITION_TITLE: Le Rime di Torquato Tasso
!!@EDITION_LOC:	Bologna
!!@EDITION_PUB:	Romagnoli-Dall’Acqua
!!@EDITION_DATE:  1898-1902
!!@EDITION_VOL:	2
!!@EDITION_PAGE:  467
!!@TRANSLATOR:	Emiliano Ricciardi and Amyrose McCue Gill
!!@VERSE:
!!	Se tu mi lasci, perfida, tuo danno:
!!	Non ti pensar che sia
!!	Misera senza te la vita mia.
!!	Misero ben sarei
!!	Se miseria i' stimassi e non ventura
!!	Perder chi non mi cura
!!	E ricovrar quel che di me perdei.
!!	Misera tu, che per novello amore
!!	Perdi quel fido core
!!	Ch'era più tuo che tu di te non sei;
!!	Ma il tuo già non perd'io
!!	Perché non fu mai mio.
!!@TVERSE:
!!	If you leave me, wicked lady, your loss:
!!	Do not think to yourself that
!!	Miserable without you will my life be.
!!	I would well be miserable
!!	If I were to deem [it] misery and not fortune
!!	To lose she who cares not for me
!!	And to recover that [part] of me which I lost.
!!	You [will be] miserable, as for a new love
!!	You lose that faithful heart
!!	That was more yours than you yourself are.
!!	But yours I am indeed not losing
!!	Because it was never mine.
!!@@END:		VERSES
!!@OTHER_CRIT_ED:   None
!!@ATTRIBUTION_ABOUT:	Not secure
!!		<br>
!!		This poem is attributed to Tasso only in a literary print that was not supervised by the poet and in reprints thereof (see Literary Sources).
!!@DATING:	In or before 1586
!!@DEDICATEE:
!!@COMMENTARY:
!!@@END:		VERSEDATA
!!@@BEGIN:	SETTING
!!@CATALOGNUM:	Trm0433i
!!@RIMETITLE:	Se ti mi lasci, perfida, tuo danno
!!@SOLERTI:	433
!!@COMPOSER:	Landi, Stefano
!!@PRINCEPSTITLE:	Arie a una voce
!!@PRINCEPSLOC:	Venetia
!!@NORMLOC:	Venice
!!@NORMPUB:	Bartholomeo Magni
!!@NORMPUBSHORT:	Magni
!!@PRINCEPSPUB:	appresso Magni
!!@PRINCEPSYEAR:	1620
!!@PRINCEPSRISM:	L 530
!!@REPRINTS:	
!!@OVOICES:	1 + bc
!!@EXTANTVOICES:	1 + bc
!!@PARTBOOKS:	
!!@EXTPARTBOOKS:	
!!@OCLEFS:	F4,F4
!!@OMENSURATION:	C; 3; C
!!@OKEYSIG:	b-
!!@FINAL:	F
!!@TIMPEDITOR:	Ricciardi, Emiliano
!!@NOTE:		
!!@@END:		SETTING
